X:1
T:Title
%%score { 1 | 2 }
L:1/8
M:3/4
K:Eb
V:1 treble nm="Grand Piano"
V:2 bass 
V:1
 z2 z2 z[Q:1/4=100] [B,GB] | [B,GB]>[EGB] [EGB]3 [DFA] | G>G G3 G | FG A3 B | A>G [DF]3 [DF] | %5
 E>E E3 E | E>E [DF]3 G | AB c3 B | B/A/[B,EG] [B,DF]3 [DFB] | [EGB][Ge] [B,GB]3 [B,EG] | %10
[M:5/8] [A,DF]>[B,DG] [G,E]3 |] %11
V:2
 z2 z2 z E, | E,>E, E,3 B,, | [E,B,E]>[E,B,E] [E,B,E]3 [E,B,E] | [D,B,][E,E] [F,DE]3 [F,B,D] | %4
 [F,B,D]>[E,B,E] [B,,B,]3 [B,,A,] | [C,G,]>[C,G,] [C,G,]3 [C,G,] | [C,G,]>[C,G,] [B,,B,]3 [E,B,E] | %7
 [F,EF][G,E] [A,E]3 [G,B,E] | [F,B,E]E, B,,3 B,, | E,[E,B,] E,3 E, |[M:5/8] B,,>B,, E,3 |] %11

